X: 15
T:Jack Gorton's Hornpipe
M:3/2
L:1/4
S:Marsden
Z:ps
K:G
Gg2d B/c/d/B/ | Af/g/aef/g/a | Gg2d B/c/d/B/ | Ge/f/gef/g/a || 
Ge/f/ g/f/e/d/  B/c/d/B/ | Af/g/aef/g/a | Ge/f/ g/f/e/d/ B/c/d/B/ | Ge/f/gef/g/a || 
GBAcBd | FA2BAF | G>B A/B/ c/A/ B/c/d/B/ | GB2A/G/ A/B/ c/A/ || 
G/A/ B/G/ A/B/ c/A/ B/c/d/B/ | FA2BAF | G/A/ B/G/ A/B/ c/A/ B/c/d/B/ | GB2A/G/A/B/ c/A/ || 
Ggdg B/c/d/B/ | Aaegf/g/a/f/ | Ggdg B/c/d/B/ | Ge/f/gef/g/a || 
G/A/ B/c/ d/B/ d/B/ d/B/ d/B/ | FA2BAD | G/A/ B/c/ d/B/ d/B/ d/B/ d/B/ | GB2A/G/ A/B/ c/A/ || 
Ge/f/ g/f/e/d/ B/c/d/B/ | Af/g/ a/g/f/e/ f/g/a/f/ | Ge/f/ g/f/e/d/ B/c/d/B/ | Ge/f/gef/g/a || 
g/f/e/d/ e/d/c/B/ c/B/ A/G/ | FA2BAD | G/A/ B/G/ A/B/ c/A/ B/c/d/B/ | GB2A/G/ A/B/ c/A/ || 
G/A/ B/G/ A/B/ c/A/ B/c/d/B/ | F/G/A/B/ c/B/ A/G/ F/G/A/F/ | G/A/B/G/ A/B/c/A/ B/c/ d/B/ | G/A/ B/G/ B/c/d/B/ c/B/ A/G/ || 
EGDGB,G | A,A2BAG/F/ | EGDEB,D | G,G2BAG/F/ | E/D/E/F/ G/F/E/D/ G,/A,/B,/G,/ | A,A2BAG/F/ | E/D/E/F/ G/F/E/D/ G,/A,/B,/G,/ | G,G2BAG/F/ || 

